lib/brands/icons/google-verifiedbadge.svg

<svg xmlns="http://www.w3.org/2000/svg" fill="none" aria-hidden="true" viewBox="0 0 48 48"><g id="google-verifiedbadge-Icon"><g id="Group"><path id="Vector" fill="white" fill-rule="evenodd" d="M36.4361 14.4499L24.3785 39.2089L11.5542 22.7724L36.4361 14.4499Z" clip-rule="evenodd"/><path id="Vector_2" fill="#4285F4" d="M24.001 8L10.9463 13.8022V22.5062C10.9463 30.5997 16.545 38.1722 24.001 40C31.53 38.1581 37.0557 30.5997 37.0557 22.5062V13.8022L24.001 8ZM21.1005 31.3254L15.2983 25.5232L17.3578 23.4637L21.1287 27.2205L30.7031 17.545L32.7626 19.6198L21.1005 31.3254Z"/></g></g></svg>

<svg xmlns="http://www.w3.org/2000/svg" fill="none" aria-hidden="true" viewBox="0 0 48 48"><path fill="#fff" fill-rule="evenodd" d="M36.436 14.45 24.378 39.209 11.554 22.772l24.882-8.322Z" clip-rule="evenodd"/><path fill="#4285F4" d="m24.001 8-13.055 5.802v8.704c0 8.094 5.599 15.666 13.055 17.494 7.529-1.842 13.055-9.4 13.055-17.494v-8.704L24 8Zm-2.9 23.325-5.803-5.802 2.06-2.06 3.77 3.758 9.575-9.676 2.06 2.075L21.1 31.325Z"/></svg>
